static/icons/i_fussgaenger_fahrrad.svg

<?xml version="1.0" encoding="UTF-8" standalone="no"?>
<svg
   xmlns:dc="http://purl.org/dc/elements/1.1/"
   xmlns:cc="http://creativecommons.org/ns#"
   xmlns:rdf="http://www.w3.org/1999/02/22-rdf-syntax-ns#"
   xmlns:svg="http://www.w3.org/2000/svg"
   xmlns="http://www.w3.org/2000/svg"
   width="20"
   height="20"
   viewBox="0 0 20 20"
   version="1.1"
   id="svg1410">
  <defs
     id="defs1404" />
  <metadata
     id="metadata1407">
    <rdf:RDF>
      <cc:Work
         rdf:about="">
        <dc:format>image/svg+xml</dc:format>
        <dc:type
           rdf:resource="http://purl.org/dc/dcmitype/StillImage" />
        <dc:title></dc:title>
      </cc:Work>
    </rdf:RDF>
  </metadata>
  <g
     id="layer1"
     transform="matrix(0.74642259,0,0,0.74642259,70.538672,-46.106037)">
    <path
       style="display:inline;stroke-width:0.16970553"
       d="m 37.804688,0.16992188 c -4.055093,-7.9371e-4 -7.342591,3.28670392 -7.341797,7.34179692 3.02e-4,4.0542992 3.287497,7.3406372 7.341797,7.3398432 4.053543,-3.02e-4 7.339541,-3.2863 7.339843,-7.3398432 7.94e-4,-4.0543371 -3.285506,-7.34149456 -7.339843,-7.34179692 z M 88.666016,8.6660156 8.6601562,88.664062 11.332031,91.335938 91.337891,11.339844 Z m -58.78711,7.6171874 c -0.879118,0.03931 -1.558386,0.200704 -1.929687,0.523438 l -0.002,0.002 -14.75586,8.630859 -8.503906,12.238281 4.2304688,3.515625 7.5546872,-10.603515 9.052735,-4.267578 -5.138672,20.183593 h 0.0293 L 16.314453,61.820312 0.59375,70.839844 4.1113281,76.923828 22.355469,66.455078 27.414062,47.564453 c 0,0 3.781631,6.468448 6.460938,11.068359 l 5.21875,-5.216796 -3.585938,-6.375 4.607422,-18.992188 6.574219,9.433594 6.363281,1.972656 4.236328,-4.236328 -5.970703,-1.917969 c 0,0 -5.008543,-12.873706 -7.80664,-14.095703 -2.273084,-0.992693 -9.818816,-3.092672 -13.632813,-2.921875 z m 40.664063,32.332031 c -0.55423,0 -1.073107,0.270235 -1.390625,0.72461 -0.317859,0.454072 -0.396877,1.036275 -0.207032,1.55664 l 1.478516,4.03711 h -17.99414 l -3.394532,3.394531 h 20.128906 l -12.728515,19.410156 -7.460938,-19.349609 -2.625,2.623047 7.21875,18.726562 H 49.753906 C 49.253081,74.630703 46.517091,70.168469 42.539062,67.347656 40.504127,66.01953 40.097818,66.192002 36.818359,70.544922 l -5.71289,10.050781 c -0.298583,0.525203 -0.296313,1.169038 0.01172,1.691406 0.303874,0.522218 0.862488,0.843637 1.466796,0.84375 h 13.757813 c -0.839887,6.846615 -6.687904,12.167969 -13.757813,12.167969 -5.539313,0 -10.316384,-3.273483 -12.535156,-7.980469 l -2.52539,2.525391 c 2.956686,5.272932 8.593421,8.849609 15.05664,8.849609 8.943421,0 16.320474,-6.839993 17.175781,-15.5625 h 6.28711 c 0.571956,0 1.106372,-0.287552 1.419922,-0.765625 l 14.761718,-22.513672 2.208985,6.039063 c -5.773002,2.794507 -9.763672,8.712632 -9.763672,15.544922 0,9.516132 7.74168,17.257812 17.257812,17.257812 9.516095,0 17.257813,-7.74168 17.257813,-17.257812 0,-9.514772 -7.739626,-17.257687 -17.253906,-17.259766 h -0.002 -0.002 c -1.485467,3.03e-4 -2.928486,0.18976 -4.304687,0.544922 L 72.972656,52.009766 h 6.34961 c 0.937209,0 1.697265,-0.760057 1.697265,-1.697266 0,-0.937323 -0.760056,-1.697266 -1.697265,-1.697266 z m 11.386719,18.955078 c 7.644737,0 13.863281,6.220536 13.863281,13.865235 0,7.644699 -6.218544,13.863281 -13.863281,13.863281 -7.644662,0 -13.865235,-6.218469 -13.865235,-13.863281 0,-5.36897 3.070264,-10.031874 7.544922,-12.333985 l 4.726563,12.916016 c 0.251716,0.687912 0.901453,1.115234 1.59375,1.115234 0.193511,0 0.389766,-0.03397 0.582031,-0.103515 0.880176,-0.322016 1.333734,-1.297634 1.011719,-2.177735 L 78.796875,67.931641 c 1.007584,-0.233575 2.055156,-0.361329 3.132813,-0.361329 z m -41.076172,2.746094 c 2.962582,2.209777 5.012463,5.575374 5.484375,9.421875 H 35.498047 Z"
       transform="matrix(0.26458333,0,0,0.26458333,-94.305061,62.087797)"
       id="path1361" />
  </g>
</svg>

<?xml version="1.0" encoding="UTF-8" standalone="no"?>
<svg
   xmlns:dc="http://purl.org/dc/elements/1.1/"
   xmlns:cc="http://creativecommons.org/ns#"
   xmlns:rdf="http://www.w3.org/1999/02/22-rdf-syntax-ns#"
   xmlns:svg="http://www.w3.org/2000/svg"
   xmlns="http://www.w3.org/2000/svg"
   id="svg1410"
   version="1.1"
   viewBox="0 0 26.458336 26.458336"
   height="26.458336mm"
   width="26.458336mm">
  <defs
     id="defs1404" />
  <metadata
     id="metadata1407">
    <rdf:RDF>
      <cc:Work
         rdf:about="">
        <dc:format>image/svg+xml</dc:format>
        <dc:type
           rdf:resource="http://purl.org/dc/dcmitype/StillImage" />
        <dc:title></dc:title>
      </cc:Work>
    </rdf:RDF>
  </metadata>
  <g
     transform="translate(94.305061,-62.087797)"
     id="layer1">
    <path
       id="path1361"
       transform="matrix(0.26458333,0,0,0.26458333,-94.305061,62.087797)"
       d="M 37.804688 0.16992188 C 33.749595 0.16912817 30.462097 3.4566258 30.462891 7.5117188 C 30.463193 11.566018 33.750388 14.852356 37.804688 14.851562 C 41.858231 14.85126 45.144229 11.565262 45.144531 7.5117188 C 45.145325 3.4573817 41.859025 0.17022424 37.804688 0.16992188 z M 88.666016 8.6660156 L 8.6601562 88.664062 L 11.332031 91.335938 L 91.337891 11.339844 L 88.666016 8.6660156 z M 29.878906 16.283203 C 28.999788 16.32251 28.32052 16.483907 27.949219 16.806641 L 27.947266 16.808594 L 13.191406 25.439453 L 4.6875 37.677734 L 8.9179688 41.193359 L 16.472656 30.589844 L 25.525391 26.322266 L 20.386719 46.505859 L 20.416016 46.505859 L 16.314453 61.820312 L 0.59375 70.839844 L 4.1113281 76.923828 L 22.355469 66.455078 L 27.414062 47.564453 C 27.414062 47.564453 31.195693 54.032901 33.875 58.632812 L 39.09375 53.416016 L 35.507812 47.041016 L 40.115234 28.048828 L 46.689453 37.482422 L 53.052734 39.455078 L 57.289062 35.21875 L 51.318359 33.300781 C 51.318359 33.300781 46.309816 20.427075 43.511719 19.205078 C 41.238635 18.212385 33.692903 16.112406 29.878906 16.283203 z M 70.542969 48.615234 C 69.988739 48.615234 69.469862 48.885469 69.152344 49.339844 C 68.834485 49.793916 68.755467 50.376119 68.945312 50.896484 L 70.423828 54.933594 L 52.429688 54.933594 L 49.035156 58.328125 L 69.164062 58.328125 L 56.435547 77.738281 L 48.974609 58.388672 L 46.349609 61.011719 L 53.568359 79.738281 L 49.753906 79.738281 C 49.253081 74.630703 46.517091 70.168469 42.539062 67.347656 C 40.504127 66.01953 40.097818 66.192002 36.818359 70.544922 L 31.105469 80.595703 C 30.806886 81.120906 30.809156 81.764741 31.117188 82.287109 C 31.421062 82.809327 31.979676 83.130746 32.583984 83.130859 L 46.341797 83.130859 C 45.50191 89.977474 39.653893 95.298828 32.583984 95.298828 C 27.044671 95.298828 22.2676 92.025345 20.048828 87.318359 L 17.523438 89.84375 C 20.480124 95.116682 26.116859 98.693359 32.580078 98.693359 C 41.523499 98.693359 48.900552 91.853366 49.755859 83.130859 L 56.042969 83.130859 C 56.614925 83.130859 57.149341 82.843307 57.462891 82.365234 L 72.224609 59.851562 L 74.433594 65.890625 C 68.660592 68.685132 64.669922 74.603257 64.669922 81.435547 C 64.669922 90.951679 72.411602 98.693359 81.927734 98.693359 C 91.443829 98.693359 99.185547 90.951679 99.185547 81.435547 C 99.185547 71.920775 91.445921 64.17786 81.931641 64.175781 L 81.929688 64.175781 L 81.927734 64.175781 C 80.442267 64.176084 78.999248 64.365541 77.623047 64.720703 L 72.972656 52.009766 L 79.322266 52.009766 C 80.259475 52.009766 81.019531 51.249709 81.019531 50.3125 C 81.019531 49.375177 80.259475 48.615234 79.322266 48.615234 L 70.542969 48.615234 z M 81.929688 67.570312 C 89.574425 67.570312 95.792969 73.790848 95.792969 81.435547 C 95.792969 89.080246 89.574425 95.298828 81.929688 95.298828 C 74.285026 95.298828 68.064453 89.080359 68.064453 81.435547 C 68.064453 76.066577 71.134717 71.403673 75.609375 69.101562 L 80.335938 82.017578 C 80.587654 82.70549 81.237391 83.132812 81.929688 83.132812 C 82.123199 83.132812 82.319454 83.09884 82.511719 83.029297 C 83.391895 82.707281 83.845453 81.731663 83.523438 80.851562 L 78.796875 67.931641 C 79.804459 67.698066 80.852031 67.570312 81.929688 67.570312 z M 40.853516 70.316406 C 43.816098 72.526183 45.865979 75.89178 46.337891 79.738281 L 35.498047 79.738281 L 40.853516 70.316406 z "
       style="display:inline;stroke-width:0.16970553" />
  </g>
</svg>
